public/img/undraw_profile.svg

<?xml version="1.0" standalone="no"?>
<!DOCTYPE svg PUBLIC "-//W3C//DTD SVG 20010904//EN"
 "http://www.w3.org/TR/2001/REC-SVG-20010904/DTD/svg10.dtd">
<svg version="1.0" xmlns="http://www.w3.org/2000/svg"
 width="880.000000pt" height="980.000000pt" viewBox="0 0 880.000000 980.000000"
 preserveAspectRatio="xMidYMid meet">

<g transform="translate(0.000000,980.000000) scale(0.100000,-0.100000)"
fill="#000000" stroke="none">
<path d="M3151 9789 c-718 -75 -1367 -524 -1691 -1169 -413 -821 -253 -1820
394 -2465 157 -156 340 -292 519 -385 l87 -45 -2 -149 -3 -148 -190 -48 c-284
-72 -475 -142 -692 -255 -369 -192 -665 -449 -900 -781 -327 -462 -526 -1052
-612 -1814 -36 -318 -45 -514 -46 -965 l0 -440 28 -58 c223 -454 1437 -749
3487 -847 118 -6 411 -13 650 -15 377 -5 430 -3 400 9 -125 49 -227 125 -293
219 -83 117 -550 940 -574 1010 -50 149 -37 319 35 467 48 98 157 209 264 269
l76 43 0 207 0 206 -85 50 c-111 64 -209 167 -256 267 -51 106 -61 150 -61
273 0 164 12 190 314 716 144 250 272 468 285 484 134 179 358 274 572 244 92
-13 174 -42 267 -97 l69 -40 67 44 c37 23 114 68 173 99 l106 56 3 81 3 81
-135 90 c-145 96 -415 233 -573 292 -120 44 -308 98 -442 128 l-100 22 -3 150
-2 150 77 40 c308 161 593 418 794 717 170 253 288 557 335 869 24 157 24 453
0 609 -109 714 -542 1307 -1181 1620 -359 176 -771 250 -1164 209z"/>
<path d="M5967 4853 c-4 -3 -7 -129 -7 -279 l0 -273 -57 -16 c-283 -79 -585
-251 -794 -452 l-46 -44 -234 135 c-128 75 -236 136 -239 136 -11 -1 -481
-830 -476 -839 4 -5 110 -69 237 -142 220 -126 231 -133 225 -158 -52 -234
-58 -274 -63 -436 -6 -189 3 -288 44 -458 14 -60 21 -112 17 -117 -5 -5 -110
-67 -234 -138 -124 -72 -225 -137 -225 -144 0 -17 467 -828 477 -828 4 0 112
60 240 134 l233 134 65 -62 c196 -184 472 -343 734 -422 l96 -28 0 -278 0
-278 488 2 487 3 3 275 2 275 82 25 c270 81 552 241 748 427 l66 61 229 -133
c127 -74 235 -134 240 -134 13 -1 489 828 481 837 -4 3 -109 66 -234 138 -259
150 -237 121 -204 279 58 275 57 479 -4 763 -16 72 -23 127 -18 131 5 5 106
64 224 132 118 67 221 128 228 134 11 10 -33 91 -223 421 -130 225 -240 413
-244 417 -4 4 -113 -53 -241 -127 l-233 -135 -80 71 c-216 190 -413 305 -687
398 l-135 46 -3 277 -2 277 -478 0 c-263 0 -482 -3 -485 -7z m754 -1286 c353
-91 625 -309 778 -621 255 -521 95 -1143 -380 -1479 -94 -66 -256 -141 -374
-173 -134 -35 -354 -44 -494 -20 -427 75 -782 381 -916 791 -93 286 -68 622
68 890 86 172 260 364 419 463 136 84 304 146 465 172 104 16 326 5 434 -23z"/>
</g>
</svg>

<?xml version="1.0" standalone="no"?>
<!DOCTYPE svg PUBLIC "-//W3C//DTD SVG 1.0//EN" "http://www.w3.org/TR/2001/REC-SVG-20010904/DTD/svg10.dtd">
<svg xmlns="http://www.w3.org/2000/svg" id="body_1" width="58" height="65">

<g transform="matrix(0.06590909 0 0 0.06590909 -0 0.4090917)">
	<g transform="matrix(0.1 0 -0 -0.1 0 980)">
        <path d="M3151 9789C 2433 9714 1784 9265 1460 8620C 1047 7799 1207 6800 1854 6155C 2011 5999 2194 5863 2373 5770L2373 5770L2460 5725L2458 5576L2455 5428L2265 5380C 1981 5308 1790 5238 1573 5125C 1204 4933 908 4676 673 4344C 346 3882 147 3292 61 2530C 25 2212 16 2016 15 1565L15 1565L15 1125L43 1067C 266 613 1480 318 3530 220C 3648 214 3941 207 4180 205C 4557 200 4610 202 4580 214C 4455 263 4353 339 4287 433C 4204 550 3737 1373 3713 1443C 3663 1592 3676 1762 3748 1910C 3796 2008 3905 2119 4012 2179L4012 2179L4088 2222L4088 2429L4088 2635L4003 2685C 3892 2749 3794 2852 3747 2952C 3696 3058 3686 3102 3686 3225C 3686 3389 3698 3415 4000 3941C 4144 4191 4272 4409 4285 4425C 4419 4604 4643 4699 4857 4669C 4949 4656 5031 4627 5124 4572L5124 4572L5193 4532L5260 4576C 5297 4599 5374 4644 5433 4675L5433 4675L5539 4731L5542 4812L5545 4893L5410 4983C 5265 5079 4995 5216 4837 5275C 4717 5319 4529 5373 4395 5403L4395 5403L4295 5425L4292 5575L4290 5725L4367 5765C 4675 5926 4960 6183 5161 6482C 5331 6735 5449 7039 5496 7351C 5520 7508 5520 7804 5496 7960C 5387 8674 4954 9267 4315 9580C 3956 9756 3544 9830 3151 9789z" stroke="none" fill="#000000"/>
        <path d="M5967 4853C 5963 4850 5960 4724 5960 4574L5960 4574L5960 4301L5903 4285C 5620 4206 5318 4034 5109 3833L5109 3833L5063 3789L4829 3924C 4701 3999 4593 4060 4590 4060C 4579 4059 4109 3230 4114 3221C 4118 3216 4224 3152 4351 3079C 4571 2953 4582 2946 4576 2921C 4524 2687 4518 2647 4513 2485C 4507 2296 4516 2197 4557 2027C 4571 1967 4578 1915 4574 1910C 4569 1905 4464 1843 4340 1772C 4216 1700 4115 1635 4115 1628C 4115 1611 4582 800 4592 800C 4596 800 4704 860 4832 934L4832 934L5065 1068L5130 1006C 5326 822 5602 663 5864 584L5864 584L5960 556L5960 278L5960 0L6448 2L6935 5L6938 280L6940 555L7022 580C 7292 661 7574 821 7770 1007L7770 1007L7836 1068L8065 935C 8192 861 8300 801 8305 801C 8318 800 8794 1629 8786 1638C 8782 1641 8677 1704 8552 1776C 8293 1926 8315 1897 8348 2055C 8406 2330 8405 2534 8344 2818C 8328 2890 8321 2945 8326 2949C 8331 2954 8432 3013 8550 3081C 8668 3148 8771 3209 8778 3215C 8789 3225 8745 3306 8555 3636C 8425 3861 8315 4049 8311 4053C 8307 4057 8198 4000 8070 3926L8070 3926L7837 3791L7757 3862C 7541 4052 7344 4167 7070 4260L7070 4260L6935 4306L6932 4583L6930 4860L6452 4860C 6189 4860 5970 4857 5967 4853zM6721 3567C 7074 3476 7346 3258 7499 2946C 7754 2425 7594 1803 7119 1467C 7025 1401 6863 1326 6745 1294C 6611 1259 6391 1250 6251 1274C 5824 1349 5469 1655 5335 2065C 5242 2351 5267 2687 5403 2955C 5489 3127 5663 3319 5822 3418C 5958 3502 6126 3564 6287 3590C 6391 3606 6613 3595 6721 3567z" stroke="none" fill="#000000"/>
	</g>
</g>
</svg>
